X: 21252
M: C|
L: 1/8
K: F
defc ABcA | dcBA {A}G2FD | F2f2 c>dB>c | A2F2 F2 :|
|: c/d/e |\
fefg fgaf | {a}gfga agfd | cdfg fgag | fgfc ABcA |\
defc ABcA | fdcA {A}G2FD | F2f2 c>dB>c | A2F2 F2 :|


